X: 15
T: Evit Gabriel
R: reel
M: 4/4
L: 1/8
K: Emin
|:z2|"Em"EFGF EFGF | EFGA B2BB |"Am"cBAG F2GA |"B7"BAGB F2 GF |
"Em"EFGF EFGF | EFGA B2BB | "Am"cBAG FGAc | "B7"BAGF "Em"E2 :|
|: cd|"Am"eAAe "D7"dcBc | "G"dGGd "C"cBAG | "Am/F#"FGAc "B7"BAGF | "Em"EFGA "E7"B2cd |
"Am"eAAe "D7"dcBc | "G"dGGd "C"cBAG | "Am/F#"FGAc "B7"BAGF| "Em"EG FD E2 :|

